svgs/solid/shredder.svg

<svg xmlns="http://www.w3.org/2000/svg" viewBox="0 0 512 512"><!-- Font Awesome Pro 6.0.0-alpha2 by @fontawesome - https://fontawesome.com License - https://fontawesome.com/license (Commercial License) --><path d="M136 488C136 501.255 146.745 512 160 512H160C173.255 512 184 501.255 184 488V416H136V488ZM40 488C40 501.255 50.745 512 64 512H64C77.255 512 88 501.255 88 488V416H40V488ZM232 488C232 501.255 242.745 512 256 512H256C269.255 512 280 501.255 280 488V416H232V488ZM448 192V77.25C448 68.766 444.625 60.625 438.625 54.625L393.375 9.375C387.375 3.375 379.219 0 370.75 0H96C78.344 0 64 14.328 64 32V192C28.654 192 0 220.654 0 256V352C0 369.674 14.326 384 32 384H480C497.674 384 512 369.674 512 352V256C512 220.654 483.346 192 448 192ZM384 192H128V64H357.49L384 90.51V192ZM432 296C418.75 296 408 285.25 408 272C408 258.734 418.75 248 432 248S456 258.734 456 272C456 285.25 445.25 296 432 296ZM328 488C328 501.255 338.745 512 352 512H352C365.255 512 376 501.255 376 488V416H328V488ZM424 488C424 501.255 434.745 512 448 512H448C461.255 512 472 501.255 472 488V416H424V488Z"/></svg>

<svg xmlns="http://www.w3.org/2000/svg" viewBox="0 0 512 512"><!--! Font Awesome Pro 6.0.0-alpha3 by @fontawesome - https://fontawesome.com License - https://fontawesome.com/license (Commercial License) --><path d="M136 488C136 501.3 146.7 512 159.1 512S184 501.3 184 488V416h-48V488zM40 488C40 501.3 50.75 512 63.1 512S88 501.3 88 488V416h-48V488zM232 488C232 501.3 242.7 512 256 512s24-10.75 24-23.1V416h-48V488zM448 192V77.25c0-8.484-3.375-16.62-9.375-22.62l-45.25-45.25C387.4 3.375 379.2 0 370.8 0H96C78.34 0 64 14.33 64 32v160C28.65 192 0 220.7 0 256v96c0 17.67 14.33 32 32 32h448c17.67 0 32-14.33 32-32V256C512 220.7 483.3 192 448 192zM384 192H128V64h229.5L384 90.51V192zM432 296c-13.25 0-24-10.75-24-24c0-13.27 10.75-24 24-24s24 10.73 24 24C456 285.3 445.3 296 432 296zM328 488C328 501.3 338.7 512 352 512s24-10.75 24-23.1V416h-48V488zM424 488C424 501.3 434.7 512 448 512s24-10.75 24-23.1V416h-48V488z"/></svg>
